X:1
T:Dublin Reel
R:Reel
C:Trad.
D:John McSherry: "Celtic Millennium Collection Volume 4 1999"
M:2/2
Q:120
K:D
|: dFFF dfec | dFFF AFEA |1 dFFF dded | cABF AFEA :|2 
   B/c/dce dfed | cABF AFdf
|: eAAA eAfA | eAAA BBFA |1 eAAA egfe | dBcA BBFA :|2
    eee_e =egfe | dBcA BBFA
|: B/c/dce dFFF | dedB ADFG |1 A2dc dfed | c/B/ABF AFEA :|2
   A2df eeag | fdBc dgfe |
